src/assets/icons/metres_icon.svg

<svg width="48" height="48" viewBox="0 0 48 48" fill="none" xmlns="http://www.w3.org/2000/svg">
<path d="M41.8285 36.4697L36.3428 39.7269L37.0165 36.4697L36.3428 33.2126L41.8285 36.4697Z" fill="#28282D"/>
<path d="M36.9797 36.5092L15.0369 36.5092" stroke="#28282D" stroke-width="1.37143"/>
<path d="M16.0562 25.9955C16.3196 25.9297 16.6652 25.8597 17.093 25.7857C17.5292 25.7116 18.0311 25.6746 18.5989 25.6746C19.0103 25.6746 19.3559 25.7322 19.6357 25.8474C19.9154 25.9544 20.15 26.1148 20.3392 26.3288C20.3968 26.2876 20.4873 26.23 20.6108 26.156C20.7342 26.0819 20.8864 26.012 21.0674 25.9461C21.2485 25.8721 21.4501 25.8104 21.6722 25.761C21.8944 25.7034 22.133 25.6746 22.3881 25.6746C22.8818 25.6746 23.285 25.7486 23.5977 25.8968C23.9104 26.0366 24.1532 26.2382 24.326 26.5016C24.507 26.7649 24.6263 27.0776 24.6839 27.4396C24.7497 27.8017 24.7826 28.1966 24.7826 28.6245V32.2286H23.6348V28.8714C23.6348 28.4929 23.6142 28.1678 23.573 27.8963C23.5401 27.6248 23.4702 27.3985 23.3632 27.2174C23.2645 27.0364 23.1246 26.9048 22.9436 26.8225C22.7708 26.732 22.5445 26.6867 22.2647 26.6867C21.878 26.6867 21.557 26.7402 21.302 26.8472C21.0551 26.9459 20.8864 27.0364 20.7959 27.1187C20.8617 27.3326 20.9111 27.5672 20.944 27.8222C20.9769 28.0773 20.9934 28.3448 20.9934 28.6245V32.2286H19.8455V28.8714C19.8455 28.4929 19.8249 28.1678 19.7838 27.8963C19.7426 27.6248 19.6686 27.3985 19.5616 27.2174C19.4629 27.0364 19.323 26.9048 19.142 26.8225C18.9692 26.732 18.747 26.6867 18.4754 26.6867C18.3602 26.6867 18.2368 26.6908 18.1052 26.699C17.9735 26.7073 17.846 26.7196 17.7225 26.7361C17.6073 26.7443 17.5004 26.7566 17.4016 26.7731C17.3029 26.7896 17.237 26.8019 17.2041 26.8101V32.2286H16.0562V25.9955Z" fill="#0000FF"/>
<path d="M32.4364 17.9739C32.4364 18.2701 32.3746 18.5581 32.2512 18.8379C32.136 19.1095 31.9797 19.381 31.7822 19.6525C31.5847 19.9159 31.3625 20.1792 31.1157 20.4425C30.8688 20.6976 30.622 20.9485 30.3751 21.1954C30.2352 21.3353 30.0706 21.4999 29.8814 21.6891C29.7004 21.8784 29.5276 22.0759 29.363 22.2816C29.1984 22.4873 29.0585 22.6848 28.9433 22.874C28.8364 23.0633 28.7829 23.2279 28.7829 23.3677H32.7202V24.3428H27.5362C27.528 24.2935 27.5239 24.2441 27.5239 24.1947C27.5239 24.1453 27.5239 24.1001 27.5239 24.0589C27.5239 23.6722 27.5856 23.3143 27.709 22.9851C27.8407 22.6477 28.0094 22.3309 28.2151 22.0347C28.4208 21.7385 28.6512 21.4587 28.9063 21.1954C29.1614 20.9321 29.4124 20.677 29.6592 20.4301C29.8649 20.2327 30.0583 20.0393 30.2393 19.85C30.4286 19.6525 30.5932 19.4592 30.733 19.2699C30.8812 19.0724 30.9964 18.8708 31.0786 18.6651C31.1692 18.4594 31.2144 18.2413 31.2144 18.0109C31.2144 17.7641 31.1733 17.5543 31.091 17.3815C31.0169 17.2087 30.9141 17.0647 30.7824 16.9495C30.6508 16.8343 30.4944 16.752 30.3134 16.7026C30.1406 16.645 29.9554 16.6162 29.758 16.6162C29.5193 16.6162 29.3013 16.6491 29.1038 16.7149C28.9063 16.7808 28.7294 16.8589 28.573 16.9495C28.4167 17.0317 28.285 17.1223 28.1781 17.221C28.0711 17.3115 27.9888 17.3815 27.9312 17.4308L27.3634 16.6162C27.4375 16.5339 27.5486 16.4352 27.6967 16.32C27.8448 16.1965 28.0217 16.0813 28.2274 15.9744C28.4332 15.8674 28.6636 15.7769 28.9186 15.7028C29.1737 15.6288 29.4494 15.5917 29.7456 15.5917C30.6425 15.5917 31.3132 15.8016 31.7575 16.2212C32.2101 16.6327 32.4364 17.2169 32.4364 17.9739Z" fill="#FF0000"/>
<path d="M9.42853 9.60004L12.6857 15.0858L9.42853 14.4121L6.17139 15.0858L9.42853 9.60004Z" fill="#28282D"/>
<line x1="9.41313" y1="14.2441" x2="9.41313" y2="36.187" stroke="#28282D" stroke-width="1.37143"/>
</svg>

<svg xmlns="http://www.w3.org/2000/svg" width="48" height="48" fill="none" xmlns:v="https://vecta.io/nano"><path d="M41.829 36.47l-5.486 3.257.674-3.257-.674-3.257 5.486 3.257z" fill="#28282d"/><path d="M36.98 36.509H15.037" stroke="#28282d" stroke-width="1.371"/><path d="M16.056 25.996l1.037-.21c.436-.074.938-.111 1.506-.111.411 0 .757.058 1.037.173.28.107.514.267.704.481.058-.041.148-.099.272-.173s.276-.144.457-.21c.181-.074.383-.136.605-.185.222-.058.461-.086.716-.086.494 0 .897.074 1.21.222.313.14.555.341.728.605.181.263.3.576.358.938.066.362.099.757.099 1.185v3.604h-1.148v-3.357c0-.379-.021-.704-.062-.975-.033-.271-.103-.498-.21-.679-.099-.181-.239-.313-.42-.395-.173-.091-.399-.136-.679-.136-.387 0-.708.054-.963.161-.247.099-.416.189-.506.271a4.24 4.24 0 0 1 .148.703c.033.255.049.523.049.802v3.604h-1.148v-3.357c0-.379-.021-.704-.062-.975s-.115-.498-.222-.679c-.099-.181-.239-.313-.42-.395-.173-.091-.395-.136-.667-.136l-.37.012-.383.037-.321.037-.197.037v5.419h-1.148v-6.233z" fill="#00f"/><path d="M32.436 17.974a2.12 2.12 0 0 1-.185.864c-.115.272-.271.543-.469.815-.197.263-.42.527-.666.79l-.741.753-.494.494-.518.593c-.165.206-.305.403-.42.592-.107.189-.16.354-.16.494h3.937v.975h-5.184a.9.9 0 0 1-.012-.148v-.136c0-.387.062-.745.185-1.074a4.58 4.58 0 0 1 .506-.95c.206-.296.436-.576.691-.839l.753-.765.58-.58a5.97 5.97 0 0 0 .494-.58c.148-.198.263-.399.346-.605.091-.206.136-.424.136-.654 0-.247-.041-.457-.123-.629-.074-.173-.177-.317-.309-.432s-.288-.198-.469-.247c-.173-.058-.358-.086-.555-.086a2.06 2.06 0 0 0-.654.099c-.197.066-.374.144-.531.235-.156.082-.288.173-.395.271l-.247.21-.568-.815c.074-.082.185-.181.333-.296a2.95 2.95 0 0 1 .531-.346c.206-.107.436-.197.691-.272s.531-.111.827-.111c.897 0 1.568.21 2.012.63.453.412.679.996.679 1.753z" fill="red"/><path d="M9.429 9.6l3.257 5.486-3.257-.674-3.257.674L9.429 9.6z" fill="#28282d"/><path stroke="#28282d" stroke-width="1.371" d="M9.413 14.244v21.943"/></svg>
